assets/images/icons/ico-slide-13.svg

<svg width="42" height="31" viewBox="0 0 42 31" fill="none" xmlns="http://www.w3.org/2000/svg">
<path d="M39.1616 11.8685H31.2156V14.7063L36.3237 18.1117H41.4318" stroke="#0000FF"/>
<path d="M27.7433 8.39569H37.6923L41.5001 17.6433V26.6931H27.7433V8.39569Z" stroke="#DF0112"/>
<rect x="5.03931" y="22.0181" width="26.2434" height="4.6757" fill="white" stroke="#DF0112"/>
<circle cx="31.7838" cy="26.0586" r="4.04056" fill="white" stroke="#DF0112"/>
<circle cx="13.6221" cy="26.0586" r="4.04056" fill="white" stroke="#DF0112"/>
<circle cx="4.54056" cy="26.0586" r="4.04056" fill="white" stroke="#DF0112"/>
<line x1="5.03931" y1="15.8417" x2="5.03931" y2="22.6525" stroke="#DF0112"/>
<path d="M4.6782 15.5086L2.65955 12.0116L5.75499 3.45584L9.54387 2.05998L24.1445 7.34243L26.1632 10.8394L23.0677 19.3952L19.2789 20.7911L4.6782 15.5086Z" stroke="#0000FF"/>
<line x1="5.25846" y1="15.232" x2="9.81361" y2="2.64162" stroke="#0000FF"/>
<line x1="19.136" y1="20.253" x2="23.6912" y2="7.66268" stroke="#0000FF"/>
</svg>

<svg width="42" height="31" fill="none" xmlns="http://www.w3.org/2000/svg"><path d="M39.162 11.868h-7.946v2.838l5.108 3.406h5.108" stroke="#00F"/><path d="M27.743 8.396h9.95l3.807 9.247v9.05H27.743V8.396z" stroke="#DF0112"/><path fill="#fff" stroke="#DF0112" d="M5.039 22.018h26.243v4.676H5.039z"/><circle cx="31.784" cy="26.059" r="4.041" fill="#fff" stroke="#DF0112"/><circle cx="13.622" cy="26.059" r="4.041" fill="#fff" stroke="#DF0112"/><circle cx="4.541" cy="26.059" r="4.041" fill="#fff" stroke="#DF0112"/><path stroke="#DF0112" d="M5.039 15.842v6.81"/><path d="M4.678 15.509L2.66 12.012l3.095-8.556L9.544 2.06l14.6 5.282 2.02 3.497-3.096 8.556-3.79 1.396-14.6-5.282zm.58-.277l4.556-12.59m9.322 17.611l4.555-12.59" stroke="#00F"/></svg>
